X: 121374
T: Lynch's
S: "Ceol Rince na hEireann" 1/187
Z: B.Black
L: 1/8
M: 4/4
R: reel
K: Edor
gf|eB B2 BE E2|GFGA (3Bcd gf|eB B2 BE E2|(3Bcd AF E2 gf|
eB B2 BE E2|GFGA (3Bcd gf|eB B2 BE E2|(3Bcd AF E3z||
efga bage|fd d2 ad d2|efga bgeg|fedf eB B2|
efga bage|fd d2 ad d2|g2 fg fedf|edBd efgf||
